icons/world.svg

<svg width="24" height="24" viewBox="0 0 24 24" fill="none" xmlns="http://www.w3.org/2000/svg">
<path fill-rule="evenodd" clip-rule="evenodd" d="M12 4.11506C11.3063 5.3398 10.7798 6.64643 10.4303 8H13.5697C13.2202 6.64643 12.6937 5.3398 12 4.11506ZM13.9523 10H10.0477C9.96439 10.6611 9.9222 11.3291 9.9222 12C9.9222 12.6709 9.96439 13.3389 10.0477 14H13.9523C14.0356 13.3389 14.0778 12.6709 14.0778 12C14.0778 11.3291 14.0356 10.6611 13.9523 10ZM15.9663 14C16.0404 13.338 16.0778 12.6703 16.0778 12C16.0778 11.3297 16.0404 10.662 15.9663 10H19.7482C19.9125 10.6384 20 11.3084 20 12C20 12.6916 19.9125 13.3616 19.7482 14H15.9663ZM13.5697 16H10.4303C10.7798 17.3536 11.3063 18.6602 12 19.8849C12.6937 18.6602 13.2202 17.3536 13.5697 16ZM9.62476 19.6416C9.0775 18.4744 8.65796 17.2534 8.37227 16H5.06999C6.06723 17.7238 7.68909 19.0405 9.62476 19.6416ZM4.25178 14H8.03365C7.95964 13.338 7.9222 12.6703 7.9222 12C7.9222 11.3297 7.95964 10.662 8.03365 10H4.25178C4.08753 10.6384 4 11.3084 4 12C4 12.6916 4.08753 13.3616 4.25178 14ZM5.06999 8H8.37227C8.65796 6.7466 9.0775 5.52559 9.62476 4.35843C7.68909 4.95949 6.06722 6.27621 5.06999 8ZM14.3752 19.6416C14.9225 18.4744 15.342 17.2534 15.6277 16H18.93C17.9328 17.7238 16.3109 19.0405 14.3752 19.6416ZM18.93 8H15.6277C15.342 6.7466 14.9225 5.52559 14.3752 4.35843C16.3109 4.95949 17.9328 6.27621 18.93 8ZM11.4355 2.01569C11.6225 2.00527 11.8107 2 12 2C12.1893 2 12.3775 2.00527 12.5645 2.01569C16.6742 2.24473 20.1181 4.95311 21.4307 8.66675C21.7997 9.71063 22 10.833 22 12C22 13.167 21.7997 14.2894 21.4307 15.3332C20.1181 19.0469 16.6742 21.7553 12.5645 21.9843C12.3775 21.9947 12.1893 22 12 22C11.8107 22 11.6225 21.9947 11.4355 21.9843C7.32579 21.7553 3.88186 19.0469 2.56928 15.3332C2.20032 14.2894 2 13.167 2 12C2 10.833 2.20032 9.71063 2.56928 8.66675C3.88186 4.95311 7.32579 2.24473 11.4355 2.01569Z" fill="black"/>
</svg>

<svg
  width="24"
  height="24"
  viewBox="0 0 24 24"
  xmlns="http://www.w3.org/2000/svg"
>
  <path
    fill-rule="evenodd"
    clip-rule="evenodd"
    d="M12 4.115A15.998 15.998 0 0 0 10.43 8h3.14A15.998 15.998 0 0 0 12 4.115zM13.952 10h-3.904a15.997 15.997 0 0 0 0 4h3.904a15.999 15.999 0 0 0 0-4zm2.014 4a17.98 17.98 0 0 0 0-4h3.782c.165.638.252 1.308.252 2s-.087 1.362-.252 2h-3.782zm-2.396 2h-3.14c.35 1.354.876 2.66 1.57 3.885A15.996 15.996 0 0 0 13.57 16zm-3.945 3.642A18.002 18.002 0 0 1 8.372 16H5.07a8.023 8.023 0 0 0 4.555 3.642zM4.252 14h3.782a18.001 18.001 0 0 1 0-4H4.252A8.016 8.016 0 0 0 4 12c0 .692.088 1.362.252 2zm.818-6h3.302a18.001 18.001 0 0 1 1.253-3.642A8.023 8.023 0 0 0 5.07 8zm9.305 11.642A18 18 0 0 0 15.628 16h3.302a8.023 8.023 0 0 1-4.555 3.642zM18.93 8h-3.302a18 18 0 0 0-1.253-3.642A8.023 8.023 0 0 1 18.93 8zm-7.495-5.984a10.145 10.145 0 0 1 1.13 0c4.11.229 7.553 2.937 8.866 6.65A9.984 9.984 0 0 1 22 12c0 1.167-.2 2.29-.57 3.333-1.312 3.714-4.756 6.422-8.865 6.651a10.165 10.165 0 0 1-1.13 0c-4.11-.229-7.553-2.937-8.866-6.65A9.985 9.985 0 0 1 2 12c0-1.167.2-2.29.57-3.333 1.312-3.714 4.756-6.422 8.865-6.651z"
  />
</svg>
